build/Karasa-Jaga/scalable/actions/view-dual-symbolic.svg

<svg height="16" width="16" xmlns="http://www.w3.org/2000/svg"><path d="m0 .99804688v14.00000012c5.3333-.002 10.667.005906 16 .003906v-13.9999999c-5.3333.002-10.667-.00590623-16-.00390622zm1.2949219 1.44921872h5.9316406v11.1054684h-5.9316406zm7.4785156 0h5.9316405v11.1054684h-5.9316405z" fill="#bebebe"/></svg>

<?xml version="1.0" encoding="UTF-8" standalone="no"?>
<!-- Created with Inkscape (http://www.inkscape.org/) -->

<svg
   xmlns:dc="http://purl.org/dc/elements/1.1/"
   xmlns:cc="http://creativecommons.org/ns#"
   xmlns:rdf="http://www.w3.org/1999/02/22-rdf-syntax-ns#"
   xmlns:svg="http://www.w3.org/2000/svg"
   xmlns="http://www.w3.org/2000/svg"
   xmlns:sodipodi="http://sodipodi.sourceforge.net/DTD/sodipodi-0.dtd"
   xmlns:inkscape="http://www.inkscape.org/namespaces/inkscape"
   id="svg3085"
   version="1.1"
   inkscape:version="0.92.2 (unknown)"
   width="16"
   height="16"
   sodipodi:docname="view-dual-symbolic.svg">
  <metadata
     id="metadata3091">
    <rdf:RDF>
      <cc:Work
         rdf:about="">
        <dc:format>image/svg+xml</dc:format>
        <dc:type
           rdf:resource="http://purl.org/dc/dcmitype/StillImage" />
        <dc:title />
      </cc:Work>
    </rdf:RDF>
  </metadata>
  <defs
     id="defs3089">
    <filter
       color-interpolation-filters="sRGB"
       id="filter7554">
      <feBlend
         mode="darken"
         in2="BackgroundImage"
         id="feBlend7556" />
    </filter>
  </defs>
  <sodipodi:namedview
     pagecolor="#ffffff"
     bordercolor="#666666"
     borderopacity="1"
     objecttolerance="10"
     gridtolerance="10"
     guidetolerance="10"
     inkscape:pageopacity="0"
     inkscape:pageshadow="2"
     inkscape:window-width="1366"
     inkscape:window-height="716"
     id="namedview3087"
     showgrid="false"
     inkscape:zoom="29.5"
     inkscape:cx="5.437717"
     inkscape:cy="9.4338807"
     inkscape:window-x="0"
     inkscape:window-y="27"
     inkscape:window-maximized="1"
     inkscape:current-layer="svg3085" />
  <path
     style="fill:#bebebe;fill-opacity:1"
     d="M 0 0.99804688 L 0 14.998047 C 5.3333 14.996047 10.667 15.003953 16 15.001953 L 16 1.0019531 C 10.6667 1.0039531 5.333 0.99604687 0 0.99804688 z M 1.2949219 2.4472656 L 7.2265625 2.4472656 L 7.2265625 13.552734 L 1.2949219 13.552734 L 1.2949219 2.4472656 z M 8.7734375 2.4472656 L 14.705078 2.4472656 L 14.705078 13.552734 L 8.7734375 13.552734 L 8.7734375 2.4472656 z "
     id="rect5700" />
</svg>
